X:1
T: Tea at the Table
M: 6/8
L: 1/8
R: jig
K: A
|: ~c3 c{d}Bc | efe {cd}cAB | c3 {d}cBc | {g}EF{Bd}B AFB |
~c3 cBc | efe c2A | aga {fa}fec | BcB A2B :|
|: ~a3 {fa}fec | Bce {fg}feg | aga fec | ~B3 efg |
~a3 {fa}fec | Bce {fa}f2e | ~a3 fec | BcB A3 :|
